X: 2088
T: 74th Highlanders' Quickstep
B: nick
B: to learn
M:4/4
Q: 1/4=100
K:Amixolydian
V:1 
|:e2|a4 e2 a2|cAcd e2 dc|BB g2 dd g2|BGBc d2 cB|
 a4 e2 a2|cAcd e2 af|e2 dcBc de|c2 A2 A2:|
 |:e2|ABcd eAcA|eAaA c2 BA|GABc dBGB|dBgd B2 AG|
 ABcd eAcA|eAaA c2 e2|dcBA GABd|c2 A2 A2:|
% abcbook-tune_id 63455f437ee89b0eb070e736


% abcbook-boost 0
% abcbook-tablature 
% abcbook-transpose 
% abcbook-lastupdated 1666788181314
% abcbook-soundfonts 
% abcbook-repeats 3


